src/images/logos/discord.svg

<svg width="20" height="20" viewBox="0 0 20 20" fill="black" xmlns="http://www.w3.org/2000/svg">
<path d="M15.7974 4.45942C15.7927 4.45 15.7851 4.44262 15.7757 4.43859C14.6952 3.91802 13.5548 3.5468 12.3832 3.33424C12.3727 3.33217 12.3617 3.33367 12.3518 3.33852C12.3421 3.34339 12.334 3.35137 12.3287 3.36132C12.1735 3.65725 12.0325 3.96121 11.9064 4.27204C10.6436 4.07076 9.35899 4.07076 8.09616 4.27204C7.96921 3.96042 7.826 3.65638 7.66716 3.36132C7.66171 3.35158 7.65359 3.34379 7.64387 3.33896C7.63414 3.33412 7.62325 3.33248 7.61262 3.33424C6.44096 3.54636 5.30055 3.9176 4.22009 4.43862C4.21084 4.44274 4.20304 4.44977 4.19776 4.45874C2.03706 7.84678 1.44516 11.1515 1.73553 14.4153C1.73635 14.4233 1.73869 14.4311 1.74241 14.4381C1.74614 14.4452 1.75117 14.4513 1.75721 14.4563C3.01536 15.4344 4.42262 16.181 5.91893 16.6643C5.92947 16.6676 5.94072 16.6674 5.95118 16.6638C5.96163 16.6603 5.97079 16.6534 5.97741 16.6442C6.29878 16.185 6.58355 15.6988 6.8288 15.1905C6.83217 15.1836 6.8341 15.1759 6.83445 15.1681C6.8348 15.1603 6.83357 15.1525 6.83084 15.1452C6.82811 15.1379 6.82395 15.1313 6.81861 15.1258C6.81328 15.1204 6.80692 15.1162 6.79992 15.1135C6.35087 14.9331 5.91614 14.7156 5.4998 14.4631C5.49224 14.4584 5.48589 14.4519 5.48131 14.444C5.47672 14.4362 5.47406 14.4273 5.47354 14.4181C5.47302 14.4088 5.47467 14.3997 5.47833 14.3913C5.482 14.3829 5.48757 14.3757 5.49456 14.3701C5.58191 14.3013 5.66933 14.2298 5.75275 14.1577C5.76016 14.1513 5.76913 14.1472 5.77864 14.1458C5.78816 14.1444 5.79784 14.1459 5.80661 14.1501C8.53416 15.4571 11.4872 15.4571 14.1825 14.1501C14.1912 14.1457 14.2011 14.144 14.2107 14.1453C14.2203 14.1464 14.2295 14.1505 14.237 14.157C14.3205 14.2292 14.4078 14.3013 14.4958 14.3701C14.5029 14.3756 14.5085 14.3828 14.5122 14.3912C14.516 14.3995 14.5177 14.4087 14.5172 14.4179C14.5167 14.4271 14.5142 14.436 14.5097 14.4439C14.5051 14.4518 14.4988 14.4584 14.4912 14.4631C14.0759 14.7178 13.6407 14.9351 13.1905 15.1128C13.1836 15.1156 13.1772 15.1199 13.1719 15.1255C13.1666 15.131 13.1625 15.1377 13.1598 15.145C13.1572 15.1523 13.156 15.1602 13.1564 15.168C13.1567 15.1759 13.1587 15.1836 13.1622 15.1905C13.4116 15.696 13.6959 16.1816 14.0129 16.6433C14.0193 16.6528 14.0285 16.6599 14.039 16.6637C14.0495 16.6674 14.0608 16.6676 14.0714 16.6642C15.5704 16.1826 16.9801 15.4359 18.2398 14.4563C18.246 14.4516 18.2511 14.4456 18.2548 14.4386C18.2586 14.4317 18.2608 14.424 18.2615 14.416C18.6092 10.6427 17.6796 7.36506 15.7974 4.45942ZM7.23615 12.428C6.41494 12.428 5.7383 11.6368 5.7383 10.6649C5.7383 9.69317 6.40181 8.90183 7.23615 8.90183C8.07699 8.90183 8.74707 9.7 8.73399 10.6649C8.73399 11.6368 8.07042 12.428 7.23615 12.428ZM12.7742 12.428C11.953 12.428 11.2763 11.6368 11.2763 10.6649C11.2763 9.69317 11.9398 8.90183 12.7742 8.90183C13.6151 8.90183 14.2852 9.7 14.272 10.6649C14.272 11.6368 13.6151 12.428 12.7742 12.428Z" fill="black"/>
</svg>

<svg xmlns="http://www.w3.org/2000/svg" viewBox="1.67 3.33 16.67 13.33"><path d="m15.8 4.46-.02-.02a13.27 13.27 0 0 0-3.43-1.1 10.29 10.29 0 0 0-.45.93 12.1 12.1 0 0 0-3.8 0 9.41 9.41 0 0 0-.46-.93h-.03A13.24 13.24 0 0 0 4.2 4.45a15.33 15.33 0 0 0-2.44 10 13.59 13.59 0 0 0 4.2 2.2l.02-.02a10.47 10.47 0 0 0 .85-1.5l-.01-.01-.02-.02a8.92 8.92 0 0 1-1.33-.7v-.02l.02-.02a7.39 7.39 0 0 0 .29-.22h.03a9.44 9.44 0 0 0 8.4 0h.03a6.83 6.83 0 0 0 .28.27l-.01.02-.02.02a8.36 8.36 0 0 1-1.33.68.06.06 0 0 0 0 .05 11.76 11.76 0 0 0 .88 1.47h.03a13.54 13.54 0 0 0 4.2-2.24c.34-3.78-.59-7.05-2.47-9.96Zm-8.56 7.97c-.83 0-1.5-.8-1.5-1.77S6.4 8.9 7.24 8.9s1.5.8 1.5 1.76c0 .98-.67 1.77-1.5 1.77Zm5.53 0c-.82 0-1.5-.8-1.5-1.77s.67-1.76 1.5-1.76c.85 0 1.52.8 1.5 1.76 0 .98-.65 1.77-1.5 1.77Z"/></svg>
